src/assets/svg/icons/mongodb-icon.svg

<svg width="80px" height="80px" viewBox="0 0 46 101" fill="none" xmlns="http://www.w3.org/2000/svg">
<path d="M23.0677 1.16423L25.7362 6.17636C26.3362 7.10129 26.9862 7.91998 27.7517 8.68242C29.9962 10.8989 32.0883 13.2645 34.0138 15.7631C38.5353 21.7002 41.5851 28.2935 43.7631 35.4242C45.0692 39.7801 45.7786 44.2485 45.8317 48.7669C46.0504 62.2753 41.4195 73.8744 32.0827 83.5143C30.5639 85.043 28.9232 86.4455 27.1768 87.7078C26.2518 87.7078 25.8144 86.9985 25.4331 86.3454C24.7389 85.1344 24.2769 83.8044 24.0707 82.4238C23.7426 80.7895 23.527 79.1553 23.6333 77.4679V76.7055C23.5583 76.543 22.7427 1.54858 23.0677 1.16423Z" fill="#599636"/>
<path d="M23.0677 0.998615C22.9583 0.779881 22.849 0.945494 22.7396 1.05174C22.7927 2.14541 22.4115 3.12033 21.8147 4.05151C21.1585 4.97645 20.2898 5.68577 19.418 6.44821C14.5746 10.6417 10.7623 15.7069 7.70943 21.3721C3.64722 28.9965 1.55362 37.1678 0.959917 45.7703C0.688062 48.8732 1.9411 59.8224 2.91915 62.9815C5.58771 71.3684 10.3811 78.396 16.59 84.4956C18.1149 85.9642 19.7461 87.3266 21.4334 88.6359C21.924 88.6359 21.9771 88.1984 22.0896 87.8735C22.3047 87.1781 22.4687 86.4679 22.5802 85.7486L23.6739 77.5805L23.0677 0.998615Z" fill="#6CAC48"/>
<path d="M25.7362 91.0263C25.8456 89.7764 26.4456 88.739 27.0986 87.7047C26.4424 87.4328 25.955 86.8922 25.5737 86.2891C25.245 85.7181 24.9729 85.1164 24.7613 84.4924C23.9989 82.2051 23.8364 79.8053 23.6176 77.468V76.0525C23.3458 76.2712 23.2895 78.121 23.2895 78.396C23.1305 80.8664 22.8027 83.323 22.3083 85.7486C22.1459 86.7297 22.0365 87.7078 21.4334 88.5796C21.4334 88.689 21.4334 88.7983 21.4865 88.9608C22.4677 91.8481 22.7364 94.7885 22.9021 97.7851V98.8788C22.9021 100.185 22.8489 99.9099 23.9332 100.347C24.3707 100.51 24.8582 100.566 25.2956 100.891C25.6237 100.891 25.6769 100.619 25.6769 100.401L25.5144 98.6038V93.5917C25.4613 92.7168 25.6237 91.8481 25.7331 91.0294L25.7362 91.0263Z" fill="#C2BFBF"/>
</svg>

<svg xmlns="http://www.w3.org/2000/svg" width="80" height="80" viewBox="0 0 46 101" fill="none" xmlns:v="https://vecta.io/nano"><path d="M23.068 1.164l2.669 5.012a14.98 14.98 0 0 0 2.015 2.506c2.245 2.216 4.337 4.582 6.262 7.081 4.521 5.937 7.571 12.53 9.749 19.661 1.306 4.356 2.015 8.824 2.069 13.343.219 13.508-4.412 25.107-13.749 34.747a39.69 39.69 0 0 1-4.906 4.194c-.925 0-1.362-.709-1.744-1.362-.694-1.211-1.156-2.541-1.362-3.922-.328-1.634-.544-3.269-.437-4.956v-.762c-.075-.162-.891-75.157-.566-75.541z" fill="#599636"/><path d="M23.068.999c-.109-.219-.219-.053-.328.053.053 1.094-.328 2.069-.925 3-.656.925-1.525 1.634-2.397 2.397-4.843 4.193-8.656 9.259-11.709 14.924C3.647 28.997 1.554 37.168.96 45.77c-.272 3.103.981 14.052 1.959 17.211 2.669 8.387 7.462 15.415 13.671 21.514 1.525 1.469 3.156 2.831 4.843 4.14.491 0 .544-.437.656-.762a14.93 14.93 0 0 0 .491-2.125l1.094-8.168L23.068.999z" fill="#6cac48"/><path d="M25.736 91.026c.109-1.25.709-2.287 1.362-3.322-.656-.272-1.144-.812-1.525-1.416-.329-.571-.601-1.173-.812-1.797-.762-2.287-.925-4.687-1.144-7.024v-1.416c-.272.219-.328 2.069-.328 2.344-.159 2.47-.487 4.927-.981 7.353-.162.981-.272 1.959-.875 2.831 0 .109 0 .219.053.381.981 2.887 1.25 5.828 1.416 8.824v1.094c0 1.306-.053 1.031 1.031 1.468.438.163.925.219 1.362.544.328 0 .381-.272.381-.49l-.163-1.797v-5.012c-.053-.875.109-1.744.219-2.562l.003-.003z" fill="#c2bfbf"/></svg>
